icons/multi-select-24.svg

<svg width="24" height="24" viewBox="0 0 24 24" fill="none" xmlns="http://www.w3.org/2000/svg">
<path fill-rule="evenodd" clip-rule="evenodd" d="M3.75 5.5C3.33579 5.5 3 5.83579 3 6.25C3 6.66421 3.33579 7 3.75 7H15.25C15.6642 7 16 6.66421 16 6.25C16 5.83579 15.6642 5.5 15.25 5.5H3.75ZM8.75 11.5C8.33579 11.5 8 11.8358 8 12.25C8 12.6642 8.33579 13 8.75 13H20.25C20.6642 13 21 12.6642 21 12.25C21 11.8358 20.6642 11.5 20.25 11.5H8.75ZM8.75 17.5C8.33579 17.5 8 17.8358 8 18.25C8 18.6642 8.33579 19 8.75 19H20.25C20.6642 19 21 18.6642 21 18.25C21 17.8358 20.6642 17.5 20.25 17.5H8.75ZM5 12C5 12.5523 4.55228 13 4 13C3.44772 13 3 12.5523 3 12C3 11.4477 3.44772 11 4 11C4.55228 11 5 11.4477 5 12ZM4 19C4.55228 19 5 18.5523 5 18C5 17.4477 4.55228 17 4 17C3.44772 17 3 17.4477 3 18C3 18.5523 3.44772 19 4 19Z" fill="#24292E"/>
<path d="M19.3088 7.9177L17.0644 5.41698C16.92 5.25603 17.0342 5 17.2505 5H21.7393C21.9556 5 22.0698 5.25603 21.9253 5.41698L19.6809 7.9177C19.5816 8.02838 19.4082 8.02838 19.3088 7.9177Z" fill="#24292E"/>
</svg>

<svg xmlns="http://www.w3.org/2000/svg" width="24" height="24" viewBox="0 0 24 24"><path fill-rule="evenodd" d="M3.75 5.5a.75.75 0 000 1.5h11.5a.75.75 0 000-1.5H3.75zm5 6a.75.75 0 000 1.5h11.5a.75.75 0 000-1.5H8.75zm0 6a.75.75 0 000 1.5h11.5a.75.75 0 000-1.5H8.75zM5 12a1 1 0 11-2 0 1 1 0 012 0zm-1 7a1 1 0 100-2 1 1 0 000 2z"/><path d="M19.309 7.918l-2.245-2.501A.25.25 0 0117.25 5h4.49a.25.25 0 01.185.417l-2.244 2.5a.25.25 0 01-.372 0z"/></svg>
